src/lib/packages/icons/src/assets/line/credit-card-edit.svg

<svg xmlns="http://www.w3.org/2000/svg" width="24" height="24" fill="none"><path fill="currentColor" d="M11 17.25H5c-1.577 0-2.25-.673-2.25-2.25V9.75h16.5V10a.75.75 0 0 0 1.5 0V7c0-2.418-1.332-3.75-3.75-3.75H5C2.582 3.25 1.25 4.582 1.25 7v8c0 2.418 1.332 3.75 3.75 3.75h6a.75.75 0 0 0 0-1.5ZM5 4.75h12c1.577 0 2.25.673 2.25 2.25v1.25H2.75V7c0-1.577.673-2.25 2.25-2.25Zm4 8.5a.75.75 0 0 1 0 1.5H6a.75.75 0 0 1 0-1.5h3Zm13.27.47-.99-.99c-.31-.31-.721-.48-1.159-.48h-.002a1.63 1.63 0 0 0-1.16.482l-5.491 5.516a.75.75 0 0 0-.218.529V21c0 .414.336.75.75.75h2.222a.753.753 0 0 0 .529-.218l5.516-5.491c.311-.309.482-.721.482-1.16 0-.439-.169-.851-.479-1.161Zm-2.149.03c-.009-.002.064.006.099.041l.99.99a.136.136 0 0 1 .041.099.133.133 0 0 1-.041.098l-.637.634-1.184-1.184.634-.637a.133.133 0 0 1 .098-.041Zm-4.208 6.5H14.75v-1.163l3.58-3.597 1.179 1.179-3.596 3.581Z"/></svg>

<svg width="24" height="24" viewBox="0 0 24 24" fill="none" xmlns="http://www.w3.org/2000/svg">
<path d="M11 17.25H5C3.423 17.25 2.75 16.577 2.75 15V9.75H19.25V10C19.25 10.414 19.586 10.75 20 10.75C20.414 10.75 20.75 10.414 20.75 10V7C20.75 4.582 19.418 3.25 17 3.25H5C2.582 3.25 1.25 4.582 1.25 7V15C1.25 17.418 2.582 18.75 5 18.75H11C11.414 18.75 11.75 18.414 11.75 18C11.75 17.586 11.414 17.25 11 17.25ZM5 4.75H17C18.577 4.75 19.25 5.423 19.25 7V8.25H2.75V7C2.75 5.423 3.423 4.75 5 4.75ZM9 13.25C9.414 13.25 9.75 13.586 9.75 14C9.75 14.414 9.414 14.75 9 14.75H6C5.586 14.75 5.25 14.414 5.25 14C5.25 13.586 5.586 13.25 6 13.25H9ZM22.27 13.72L21.28 12.73C20.97 12.42 20.559 12.25 20.121 12.25C20.12 12.25 20.12 12.25 20.119 12.25C19.681 12.25 19.268 12.422 18.959 12.732L13.468 18.248C13.328 18.389 13.25 18.579 13.25 18.777V21C13.25 21.414 13.586 21.75 14 21.75H16.222C16.42 21.75 16.611 21.671 16.751 21.532L22.267 16.041C22.578 15.732 22.749 15.32 22.749 14.881C22.749 14.442 22.58 14.03 22.27 13.72ZM20.121 13.75C20.112 13.748 20.185 13.756 20.22 13.791L21.21 14.781C21.244 14.815 21.251 14.853 21.251 14.88C21.251 14.907 21.244 14.945 21.21 14.978L20.573 15.612L19.389 14.428L20.023 13.791C20.056 13.757 20.094 13.75 20.121 13.75ZM15.913 20.25H14.75V19.087L18.33 15.49L19.509 16.669L15.913 20.25Z" fill="currentColor"/>
</svg>
